packages/ffe-icons/icons/open/400/sm/oven.svg

<svg xmlns="http://www.w3.org/2000/svg" height="20" viewBox="0 -960 960 960" width="20"><path d="M647.789-660Q663-660 673.5-670.289q10.5-10.29 10.5-25.5Q684-711 673.711-721.5q-10.29-10.5-25.5-10.5Q633-732 622.5-721.711q-10.5 10.29-10.5 25.5Q612-681 622.289-670.5q10.29 10.5 25.5 10.5Zm-168 0Q495-660 505.5-670.289q10.5-10.29 10.5-25.5Q516-711 505.711-721.5q-10.29-10.5-25.5-10.5Q465-732 454.5-721.711q-10.5 10.29-10.5 25.5Q444-681 454.289-670.5q10.29 10.5 25.5 10.5Zm-168 0Q327-660 337.5-670.289q10.5-10.29 10.5-25.5Q348-711 337.711-721.5q-10.29-10.5-25.5-10.5Q297-732 286.5-721.711q-10.5 10.29-10.5 25.5Q276-681 286.289-670.5q10.29 10.5 25.5 10.5ZM216-528v312h528v-312H216Zm227.912 144h71.825Q531-384 541.5-394.289q10.5-10.29 10.5-25.5Q552-435 541.675-445.5 531.35-456 516.088-456h-71.825Q429-456 418.5-445.711q-10.5 10.29-10.5 25.5Q408-405 418.325-394.5 428.65-384 443.912-384ZM216-144q-29.7 0-50.85-21.15Q144-186.3 144-216v-528q0-29.7 21.15-50.85Q186.3-816 216-816h528q29.7 0 50.85 21.15Q816-773.7 816-744v528q0 29.7-21.15 50.85Q773.7-144 744-144H216Zm264-390Zm0 0Z"/></svg>

<svg xmlns="http://www.w3.org/2000/svg" height="20" viewBox="0 -960 960 960" width="20"><path d="M647.79-660q15.21 0 25.71-10.29t10.5-25.5q0-15.21-10.29-25.71t-25.5-10.5q-15.21 0-25.71 10.29t-10.5 25.5q0 15.21 10.29 25.71t25.5 10.5Zm-168 0q15.21 0 25.71-10.29t10.5-25.5q0-15.21-10.29-25.71t-25.5-10.5q-15.21 0-25.71 10.29t-10.5 25.5q0 15.21 10.29 25.71t25.5 10.5Zm-168 0q15.21 0 25.71-10.29t10.5-25.5q0-15.21-10.29-25.71t-25.5-10.5q-15.21 0-25.71 10.29t-10.5 25.5q0 15.21 10.29 25.71t25.5 10.5ZM216-528v312h528v-312H216Zm227.91 144h71.83q15.26 0 25.76-10.29 10.5-10.29 10.5-25.5t-10.32-25.71Q531.35-456 516.09-456h-71.83q-15.26 0-25.76 10.29-10.5 10.29-10.5 25.5t10.32 25.71q10.33 10.5 25.59 10.5ZM216-144q-29.7 0-50.85-21.15Q144-186.3 144-216v-528q0-29.7 21.15-50.85Q186.3-816 216-816h528q29.7 0 50.85 21.15Q816-773.7 816-744v528q0 29.7-21.15 50.85Q773.7-144 744-144H216Zm264-390Zm0 0Z"/></svg>
